X: 1177
T:Off She Goes (A74)
N: page A74
N: heptatonic
R: Jig
M:6/8
L:1/8
S:Button & Whitaker’s Selection of Dances, Reels, Waltzes No. 1 (undated, early 19th century)
K:D
|:A|"D"F2A "G"G2B|"A7"ABc "D"d2A|"D"F2A "G"G2B|\
"D"AFD "A7"E2D| "D"F2A "G"G2B|
"A7"ABc "D"d2e|fed "G"g2f|"A7"edc d2::\
g|"D"faf "Bm"d2f|"Em"gbg "A7"e2g|
"D"faf "Bm"c2f|"A7"ecA A2g|"D"faf "Bm"c2f|\
"Em"gbg "A7"e2g|"D"fed "G"g2f|"A7"edc "D"d2:|
